icons/svg/dribbble-box.svg

﻿<?xml version="1.0" encoding="utf-8"?>
<!DOCTYPE svg PUBLIC "-//W3C//DTD SVG 1.1//EN" "http://www.w3.org/Graphics/SVG/1.1/DTD/svg11.dtd">
<svg xmlns="http://www.w3.org/2000/svg" xmlns:xlink="http://www.w3.org/1999/xlink" version="1.1" baseProfile="full" width="24" height="24" viewBox="0 0 24.00 24.00" enable-background="new 0 0 24.00 24.00" xml:space="preserve">
	<path fill="#000000" fill-opacity="1" stroke-width="0.2" stroke-linejoin="round" d="M 5,3L 19,3C 20.1046,3 21,3.89543 21,5L 21,19C 21,20.1046 20.1046,21 19,21L 5,21C 3.89543,21 3,20.1046 3,19L 3,5C 3,3.89543 3.89543,3 5,3 Z M 15.0909,16.4919C 14.814,15.1359 14.4656,13.9133 14.0829,12.8221L 15.2029,12.7424L 15.2169,12.7424L 15.2184,12.7424C 15.8702,12.7424 16.5858,12.8235 17.362,12.9999C 17.0929,14.4439 16.2575,15.6875 15.0909,16.4919 Z M 12,17.4617C 10.7851,17.4617 9.66355,17.0597 8.75511,16.3852C 8.948,16.0669 9.36334,15.4565 10.0229,14.8253C 10.7011,14.1751 11.6376,13.5059 12.8602,13.1075C 13.2756,14.2726 13.652,15.6046 13.9382,17.1039C 13.3347,17.3338 12.6829,17.4617 12,17.4617 Z M 6.53844,12.0003L 6.54156,11.9214L 7.13733,11.9323L 7.13888,11.9323C 8.23712,11.925 10.1536,11.8332 12.0964,11.2202L 12.4107,11.943C 11.1133,12.3769 10.0913,13.068 9.33533,13.7563C 8.60889,14.419 8.11733,15.0751 7.82955,15.5135C 7.0269,14.5618 6.53844,13.3393 6.53844,12.0003 Z M 9.58732,7.10803C 9.9669,7.55589 10.726,8.54055 11.5364,10.0784C 9.88755,10.5691 8.22778,10.6842 7.22289,10.6839L 7.13888,10.6836L 7.13733,10.6836L 6.70177,10.6773C 7.09377,9.10942 8.16711,7.81083 9.58732,7.10803 Z M 12,6.53886C 13.288,6.53886 14.4702,6.9892 15.4051,7.73898C 14.6896,8.59593 13.7438,9.21692 12.7233,9.65509C 12.0062,8.26801 11.3124,7.27574 10.8396,6.66907C 11.2144,6.586 11.6018,6.53886 12,6.53886 Z M 16.2887,8.62921C 16.9716,9.49644 17.3993,10.5704 17.4538,11.7431C 16.6636,11.5756 15.9169,11.4939 15.22,11.4939L 15.2153,11.4936C 14.6553,11.4936 14.1295,11.5445 13.6333,11.6324L 13.2678,10.7821C 14.3722,10.2977 15.4316,9.60844 16.2887,8.62921 Z M 12,4.99994C 8.13289,5.00027 5,8.1341 5,12.0003C 5,15.8658 8.13289,18.9999 12,18.9999C 15.8656,18.9999 19,15.8658 19,12.0003C 19,8.1341 15.8656,5.00027 12,4.99994 Z "/>
</svg>

<svg xmlns="http://www.w3.org/2000/svg" version="1.1" baseProfile="full" width="24" height="24" viewBox="0 0 24.00 24.00" xml:space="preserve"><path fill="#000" fill-opacity="1" stroke-width=".2" stroke-linejoin="round" d="M5 3h14c1.105 0 2 .895 2 2v14c0 1.105-.895 2-2 2H5c-1.105 0-2-.895-2-2V5c0-1.105.895-2 2-2zm10.09 13.492c-.276-1.356-.624-2.58-1.007-3.67l1.12-.08h.014c.653 0 1.37.08 2.145.258-.27 1.444-1.104 2.688-2.27 3.492zm-3.09.97c-1.215 0-2.336-.402-3.245-1.077.193-.318.608-.93 1.268-1.56.678-.65 1.615-1.32 2.837-1.717.416 1.165.792 2.497 1.078 3.996-.603.23-1.255.358-1.938.358zM6.538 12l.004-.08.595.012h.002c1.097-.007 3.014-.1 4.956-.712l.315.723c-1.297.434-2.32 1.125-3.075 1.813-.726.663-1.218 1.32-1.505 1.758-.803-.952-1.292-2.175-1.292-3.514zm3.05-4.892c.38.448 1.138 1.433 1.948 2.97-1.648.49-3.308.606-4.313.606H7.136l-.435-.007c.392-1.568 1.465-2.866 2.885-3.57zM12 6.538c1.288 0 2.47.45 3.405 1.2-.715.858-1.66 1.48-2.682 1.917-.717-1.387-1.41-2.38-1.883-2.986.374-.084.762-.13 1.16-.13zm4.29 2.09c.682.868 1.11 1.942 1.164 3.115-.79-.167-1.537-.25-2.234-.25h-.005c-.56 0-1.085.05-1.582.14l-.365-.85c1.104-.485 2.164-1.175 3.02-2.154zM12 5c-3.867 0-7 3.134-7 7s3.133 7 7 7c3.866 0 7-3.134 7-7s-3.134-7-7-7z"/></svg>
